X: 3341
T: The NATAL DAY
%R: hornpipe, reel
B: James Kerr "Merry Melodies" v.3 p.37 #341
Z: 2016 John Chambers <jc:trillian.mit.edu>
M: C
L: 1/8
K: G
(BA) |\
GBdB Acdc | Bdgf agfe |\
dedB cdcA | BdBG ADEF |\
GBdB Acdc | Bdgf agfe |\
dBdg bagf | g2g2 g2 :|
|: d2 |\
bdbd bdcB | acac acBA |\
BdBd BdcB | AGAB A2d2 |\
eGeG eGFE | dDdD dBce |\
dbdb caAf | gdBd G2 :|

%%sep 1 1 500
%%sep 1 1 500

